public/images/logo/highcharts.svg

<svg width="109" height="20" viewBox="0 0 109 20" fill="none" xmlns="http://www.w3.org/2000/svg">
<g clip-path="url(#clip0)">
<path d="M11.7912 0.5L8.60523 8.16138L4.41895 18.2288L14.1529 13.9944L19.3088 11.7518L11.7912 0.5Z" fill="#8087E8"/>
<path d="M13.4146 9.77344L14.1531 13.9929L19.3091 11.7503L13.4146 9.77344Z" fill="#30426B"/>
<path d="M11.791 0.5L13.4144 9.77521L19.3086 11.7518L11.791 0.5Z" fill="#6699A1"/>
<path d="M13.4146 9.77399L19.3091 11.7509L8.60551 8.16016L4.41895 18.2278L14.1532 13.9934L13.4146 9.77399Z" fill="#78758C"/>
<path d="M4.41876 18.2273L8.60504 8.15998L0 5.27344L4.41876 18.2273Z" fill="#A3EDBA"/>
<path d="M14.1533 13.9965L15.0974 19.3881L19.3092 11.7539L14.1533 13.9965Z" fill="#6699A1"/>
<path d="M11.791 0.5L8.60498 8.16138L13.4143 9.77522L11.791 0.5Z" fill="#8087E8"/>
<path d="M33.7059 10.8304H28.8747V13.6863C28.8747 13.9894 28.6439 14.2273 28.3498 14.2273C28.0555 14.2273 27.8247 13.9897 27.8247 13.6863V7.32651C27.8247 7.02339 28.0555 6.78516 28.3498 6.78516C28.6439 6.78516 28.8747 7.0228 28.8747 7.32651V9.79242H33.7059V7.32651C33.7059 7.02339 33.9369 6.78516 34.231 6.78516C34.5251 6.78516 34.7561 7.0228 34.7561 7.32651V13.6854C34.7561 13.9885 34.5251 14.2264 34.231 14.2264C33.9369 14.2264 33.7059 13.9888 33.7059 13.6854V10.8304Z" fill="#43436B"/>
<path d="M38.9567 13.6854C38.9567 13.9885 38.7256 14.2264 38.431 14.2264C38.1363 14.2264 37.9053 13.9888 37.9053 13.6854V7.32651C37.9053 7.02339 38.1363 6.78516 38.431 6.78516C38.7256 6.78516 38.9567 7.0228 38.9567 7.32651V13.6854Z" fill="#43436B"/>
<path d="M46.6639 11.0263C46.6639 10.7235 46.8949 10.5077 47.1896 10.5077C47.4831 10.5077 47.7153 10.7454 47.7153 11.0482V12.7573C47.7153 12.8871 47.6511 13.0815 47.5464 13.1897C46.8745 13.8821 45.9713 14.2925 44.9417 14.2925C42.9042 14.2925 41.2661 12.6056 41.2661 10.5077C41.2661 8.40869 42.9042 6.72266 44.9417 6.72266C45.9713 6.72266 46.8745 7.13335 47.5464 7.82495C47.7559 8.04126 47.7559 8.3663 47.5464 8.58261C47.336 8.79833 47.0008 8.82026 46.7905 8.60366C46.3074 8.10703 45.6769 7.8039 44.9417 7.8039C43.4929 7.8039 42.3164 9.01523 42.3164 10.5077C42.3164 11.9997 43.4932 13.2116 44.9417 13.2116C45.6136 13.2116 46.2023 12.9739 46.6639 12.5621V11.0263Z" fill="#43436B"/>
<path d="M56.3253 10.8304H51.4944V13.6863C51.4944 13.9894 51.2625 14.2273 50.9687 14.2273C50.6743 14.2273 50.4438 13.9897 50.4438 13.6863V7.32651C50.4438 7.02339 50.6743 6.78516 50.9687 6.78516C51.2622 6.78516 51.4944 7.0228 51.4944 7.32651V9.79242H56.3253V7.32651C56.3253 7.02339 56.5561 6.78516 56.8502 6.78516C57.1445 6.78516 57.3759 7.0228 57.3759 7.32651V13.6854C57.3759 13.9885 57.1451 14.2264 56.8502 14.2264C56.5569 14.2264 56.3253 13.9888 56.3253 13.6854V10.8304Z" fill="#43436B"/>
<path d="M63.3612 14.2925C61.3225 14.2925 59.6855 12.6056 59.6855 10.5077C59.6855 8.40869 61.3234 6.72266 63.3612 6.72266C64.3907 6.72266 65.2939 7.13335 65.9658 7.82495C66.1753 8.04126 66.1753 8.3663 65.9658 8.58261C65.7555 8.79833 65.4194 8.82026 65.2091 8.60366C64.7268 8.10703 64.0964 7.8039 63.3612 7.8039C61.9118 7.8039 60.7358 9.01523 60.7358 10.5077C60.7358 11.9997 61.9118 13.2116 63.3612 13.2116C64.0964 13.2116 64.7475 12.9304 65.2306 12.4329C65.4407 12.2163 65.7555 12.2163 65.9658 12.4329C66.1753 12.6486 66.1753 12.9737 65.9658 13.1897C65.2936 13.8816 64.3904 14.2925 63.3612 14.2925Z" fill="#43436B"/>
<path d="M74.3239 10.8304H69.4927V13.6863C69.4927 13.9894 69.262 14.2273 68.967 14.2273C68.6735 14.2273 68.4419 13.9897 68.4419 13.6863V7.32651C68.4419 7.02339 68.6727 6.78516 68.967 6.78516C69.2608 6.78516 69.4927 7.0228 69.4927 7.32651V9.79242H74.3239V7.32651C74.3239 7.02339 74.5547 6.78516 74.8499 6.78516C75.1434 6.78516 75.3747 7.0228 75.3747 7.32651V13.6854C75.3747 13.9885 75.144 14.2264 74.8499 14.2264C74.5555 14.2264 74.3239 13.9888 74.3239 13.6854V10.8304Z" fill="#43436B"/>
<path d="M82.0412 7.26103L85.0236 13.296C85.0869 13.4255 85.1499 13.5988 85.1499 13.7503C85.1499 14.0531 84.9603 14.2261 84.6668 14.2261C84.4565 14.2261 84.2464 14.1612 84.0988 13.8584L83.1754 11.9765H79.3301L78.4266 13.8584C78.2798 14.1612 78.07 14.2261 77.8606 14.2261C77.5662 14.2261 77.3774 14.0528 77.3774 13.7503C77.3774 13.5986 77.4399 13.4261 77.5029 13.296L80.4851 7.26103C80.6747 6.85034 81.0533 6.78516 81.2628 6.78516C81.474 6.78516 81.8515 6.84976 82.0412 7.26103ZM79.8348 10.9383H82.6699L81.2628 8.01811L79.8348 10.9383Z" fill="#43436B"/>
<path d="M90.955 6.83203C92.2156 6.83203 93.244 7.78349 93.244 9.08105C93.244 10.2278 92.4455 11.0933 91.3958 11.2877L93.3064 13.3642C93.4949 13.5589 93.5588 13.905 93.3479 14.0997C93.139 14.3163 92.739 14.252 92.5287 14.0132L90.0509 11.3309H88.2028V13.7109C88.2028 14.0132 87.9714 14.2295 87.6765 14.2295C87.3833 14.2295 87.1514 13.9918 87.1514 13.6884V7.3728C87.1514 7.07026 87.3824 6.83203 87.6765 6.83203H90.955ZM88.2042 7.87031V10.293H90.955C91.6902 10.293 92.1946 9.77382 92.1946 9.08105C92.1946 8.38974 91.6902 7.86972 90.955 7.86972L88.2042 7.87031Z" fill="#43436B"/>
<path d="M98.0194 7.86943H95.394C95.1008 7.86943 94.8691 7.65312 94.8691 7.35029C94.8691 7.04805 95.0999 6.83203 95.394 6.83203H101.696C101.99 6.83203 102.222 7.04834 102.222 7.35029C102.222 7.65342 101.991 7.86943 101.696 7.86943H99.0705V13.6878C99.0705 13.9909 98.8397 14.2289 98.5456 14.2289C98.2513 14.2289 98.0194 13.9912 98.0194 13.6878V7.86943Z" fill="#43436B"/>
<path d="M104.74 9.75067C104.74 7.04683 106.357 6.72266 107.576 6.72266C107.869 6.72266 108.101 6.9603 108.101 7.26343C108.101 7.56626 107.87 7.80449 107.576 7.80449C106.588 7.80449 105.79 8.02021 105.79 9.75126V11.2654C105.79 13.9693 104.173 14.2931 102.955 14.2931C102.661 14.2931 102.43 14.0555 102.43 13.7524C102.43 13.4492 102.661 13.2116 102.955 13.2116C103.942 13.2116 104.74 12.9953 104.74 11.2648V9.75067Z" fill="#43436B"/>
<path d="M108.155 14.224C108.572 14.224 108.909 13.8766 108.909 13.448C108.909 13.0193 108.572 12.6719 108.155 12.6719C107.739 12.6719 107.402 13.0193 107.402 13.448C107.402 13.8766 107.739 14.224 108.155 14.224Z" stroke="#43436B" stroke-width="0.6"/>
<path d="M108.109 13.3782C108.156 13.3782 108.19 13.3685 108.211 13.3501C108.231 13.3326 108.242 13.3028 108.242 13.2607C108.242 13.2195 108.231 13.1905 108.211 13.1721C108.19 13.1546 108.156 13.1458 108.109 13.1458H108.014V13.3782H108.109ZM108.014 13.5387V13.8807H107.788V12.9766H108.133C108.249 12.9766 108.333 12.9967 108.387 13.0371C108.442 13.0765 108.468 13.1397 108.468 13.2265C108.468 13.2861 108.454 13.3352 108.426 13.3738C108.398 13.4115 108.356 13.4405 108.299 13.458C108.331 13.4659 108.358 13.4825 108.383 13.508C108.408 13.5334 108.432 13.572 108.457 13.6246L108.58 13.8807H108.339L108.232 13.6562C108.211 13.6115 108.189 13.5799 108.167 13.5641C108.144 13.5474 108.115 13.5387 108.078 13.5387H108.014Z" fill="#43436B"/>
</g>
<defs>
<clipPath id="clip0">
<rect width="109" height="19" fill="white" transform="translate(0 0.5)"/>
</clipPath>
</defs>
</svg>

<svg width="109" height="20" fill="none" xmlns="http://www.w3.org/2000/svg"><g clip-path="url(#clip0)"><path d="M11.791.5L8.605 8.161 4.42 18.23l9.734-4.235 5.156-2.242L11.79.5z" fill="#8087E8"/><path d="M13.415 9.773l.738 4.22 5.156-2.243-5.894-1.977z" fill="#30426B"/><path d="M11.791.5l1.623 9.275 5.895 1.977L11.79.5z" fill="#6699A1"/><path d="M13.415 9.774l5.894 1.977L8.606 8.16 4.419 18.227l9.734-4.235-.738-4.219z" fill="#78758C"/><path d="M4.419 18.227L8.605 8.16 0 5.273l4.419 12.954z" fill="#A3EDBA"/><path d="M14.153 13.996l.944 5.392 4.212-7.634-5.156 2.242z" fill="#6699A1"/><path d="M11.791.5L8.605 8.161l4.81 1.614L11.79.5z" fill="#8087E8"/><path d="M33.706 10.83h-4.831v2.856c0 .303-.231.541-.525.541a.528.528 0 01-.525-.54v-6.36c0-.304.23-.542.525-.542.294 0 .525.238.525.542v2.465h4.83V7.327c0-.304.232-.542.526-.542.294 0 .525.238.525.542v6.358a.528.528 0 01-.525.541.528.528 0 01-.525-.54V10.83zM38.957 13.685a.528.528 0 01-.526.541.528.528 0 01-.526-.54v-6.36c0-.303.231-.54.526-.54.295 0 .526.237.526.54v6.36zM46.664 11.026a.51.51 0 01.526-.518c.293 0 .525.237.525.54v1.71a.7.7 0 01-.169.432 3.577 3.577 0 01-2.604 1.103c-2.038 0-3.676-1.687-3.676-3.785 0-2.1 1.638-3.785 3.676-3.785 1.03 0 1.932.41 2.604 1.102.21.216.21.541 0 .758-.21.215-.545.237-.755.02-.484-.496-1.114-.8-1.85-.8-1.448 0-2.625 1.212-2.625 2.705 0 1.492 1.177 2.704 2.626 2.704.672 0 1.26-.238 1.722-.65v-1.536zM56.325 10.83h-4.83v2.856a.529.529 0 01-.526.541.527.527 0 01-.525-.54v-6.36c0-.304.23-.542.525-.542.293 0 .525.238.525.542v2.465h4.831V7.327c0-.304.231-.542.525-.542.294 0 .526.238.526.542v6.358c0 .303-.23.541-.526.541a.528.528 0 01-.525-.54V10.83zM63.361 14.293c-2.038 0-3.675-1.687-3.675-3.785 0-2.1 1.637-3.785 3.675-3.785 1.03 0 1.933.41 2.605 1.102.21.216.21.541 0 .758-.21.215-.547.237-.757.02-.482-.496-1.113-.8-1.848-.8-1.45 0-2.625 1.212-2.625 2.705 0 1.492 1.176 2.704 2.625 2.704.735 0 1.387-.282 1.87-.78a.497.497 0 01.735 0c.21.217.21.542 0 .758a3.58 3.58 0 01-2.605 1.103zM74.324 10.83h-4.831v2.856c0 .303-.231.541-.526.541a.528.528 0 01-.525-.54v-6.36c0-.304.23-.542.525-.542.294 0 .526.238.526.542v2.465h4.83V7.327c0-.304.232-.542.527-.542.293 0 .525.238.525.542v6.358c0 .303-.231.541-.525.541a.528.528 0 01-.526-.54V10.83zM82.041 7.261l2.983 6.035c.063.13.126.303.126.454 0 .303-.19.476-.483.476-.21 0-.42-.065-.568-.368l-.924-1.882H79.33l-.903 1.882c-.147.303-.357.368-.566.368-.295 0-.484-.173-.484-.476 0-.151.063-.324.126-.454l2.982-6.035c.19-.41.568-.476.778-.476.211 0 .588.065.778.476zm-2.206 3.677h2.835l-1.407-2.92-1.428 2.92zM90.955 6.832c1.26 0 2.289.951 2.289 2.249 0 1.147-.799 2.012-1.848 2.207l1.91 2.076c.189.195.253.541.042.736-.209.216-.609.152-.82-.087l-2.477-2.682h-1.848v2.38a.51.51 0 01-.526.518.528.528 0 01-.526-.54V7.372c0-.303.231-.541.526-.541h3.278zm-2.75 1.038v2.423h2.75c.735 0 1.24-.52 1.24-1.212 0-.691-.505-1.211-1.24-1.211h-2.75zM98.02 7.87h-2.626a.51.51 0 01-.525-.52.51.51 0 01.525-.518h6.302a.51.51 0 01.526.518.51.51 0 01-.526.52H99.07v5.818c0 .303-.23.54-.524.54a.529.529 0 01-.527-.54V7.869zM104.74 9.75c0-2.703 1.617-3.027 2.836-3.027.293 0 .525.237.525.54a.528.528 0 01-.525.541c-.988 0-1.786.216-1.786 1.947v1.514c0 2.704-1.617 3.028-2.835 3.028a.528.528 0 01-.525-.54c0-.304.231-.541.525-.541.987 0 1.785-.217 1.785-1.947V9.75z" fill="#43436B"/><path d="M108.155 14.224a.765.765 0 00.754-.776.765.765 0 00-.754-.776.765.765 0 00-.753.776c0 .429.337.776.753.776z" stroke="#43436B" stroke-width=".6"/><path d="M108.109 13.378c.047 0 .081-.01.102-.028.02-.017.031-.047.031-.09 0-.04-.011-.07-.031-.088-.021-.017-.055-.026-.102-.026h-.095v.232h.095zm-.095.16v.343h-.226v-.904h.345c.116 0 .2.02.254.06.055.04.081.103.081.19 0 .06-.014.108-.042.147a.24.24 0 01-.127.084.174.174 0 01.084.05.432.432 0 01.074.117l.123.256h-.241l-.107-.225a.24.24 0 00-.065-.092.147.147 0 00-.089-.025h-.064z" fill="#43436B"/></g><defs><clipPath id="clip0"><path fill="#fff" transform="translate(0 .5)" d="M0 0h109v19H0z"/></clipPath></defs></svg>
